X:1
T:Björnen
M:2/4
L:1/8
K:Dm
|: AD D2 | AD D2 | FF EF | GG FG | AD AD | AD D2 | FF EE | D2 D2 :|
w:Ost å brö, ost å brö, får vi in-te det så går vi in-te ut-an ost och brö. In-te va-ra ut-an
D/E/F D/E/F | EC C2 | D/E/F D/E/F | G2 GF/G/ | AA GG | FF EE | DD CC |  D2 D2 |]

